src/vectors/shopping-cart.svg

<svg id="Layer_1" data-name="Layer 1" xmlns="http://www.w3.org/2000/svg" viewBox="0 0 300 300"><defs><style>.cls-1{fill-rule:evenodd;}</style></defs><title>FontTristan</title><path class="cls-1" d="M107.0935,264.7813a21.9192,21.9192,0,1,0-21.9192-21.9192A21.9192,21.9192,0,0,0,107.0935,264.7813Zm98.6365,0a21.9192,21.9192,0,1,0-21.9192-21.9192A21.9192,21.9192,0,0,0,205.73,264.7813ZM97.2751,155.1851l128.6106-.0047,10.379-55.5613L82.2719,90.2ZM77.13,67.9254L251.4475,78.6145a9.3824,9.3824,0,0,1,8.9165,11.3642l-14.2662,76.3707a13.6854,13.6854,0,0,1-12.9588,10.7549H102.3356l2.53,10.96H227.6492a10.96,10.96,0,0,1,0,21.9192H96.1339A10.96,10.96,0,0,1,85.455,201.488L53.7542,64.1178l-17.137-8.6091a10.96,10.96,0,0,1,9.784-19.6144l21.746,10.8472a10.96,10.96,0,0,1,5.787,7.3428Z"/></svg>

<svg id="Layer_1" data-name="Layer 1" xmlns="http://www.w3.org/2000/svg" xmlns:xlink="http://www.w3.org/1999/xlink" viewBox="0 0 300 300"><defs><style>.cls-1{clip-rule:evenodd;}.cls-2{fill-rule:evenodd;}.cls-3{clip-path:url(#clip-path);}.cls-4{clip-path:url(#clip-path-2);}.cls-5{clip-path:url(#clip-path-3);}.cls-6{clip-path:url(#clip-path-4);}</style><clipPath id="clip-path"><path class="cls-1" d="M107.09,264.78a21.92,21.92,0,1,0-21.92-21.92A21.92,21.92,0,0,0,107.09,264.78Zm98.64,0a21.92,21.92,0,1,0-21.92-21.92A21.92,21.92,0,0,0,205.73,264.78ZM97.28,155.19H225.89l10.38-55.56-154-9.42ZM77.13,67.93L251.45,78.61A9.38,9.38,0,0,1,260.36,90L246.1,166.35a13.69,13.69,0,0,1-13,10.75H102.34l2.53,11H227.65a11,11,0,0,1,0,21.92H96.13a11,11,0,0,1-10.68-8.5L53.75,64.12,36.62,55.51A11,11,0,0,1,46.4,35.89L68.15,46.74a11,11,0,0,1,5.79,7.34Z"/></clipPath><clipPath id="clip-path-2"><rect x="-5246.68" y="-10503.03" width="9732.13" height="19727.29"/></clipPath><clipPath id="clip-path-3"><path class="cls-1" d="M599.09,56.26h-22v-11a11,11,0,0,0-22,0v11h-22v-11a11,11,0,0,0-22,0v11h-22v-11a11,11,0,0,0-22,0v11H467a33,33,0,0,0-32.95,33v143a33,33,0,0,0,32.95,33H621.14a33,33,0,0,0,32.95-33v-143a33,33,0,0,0-32.95-33h-0.05v-11a11,11,0,0,0-22,0v11Zm33,77v99a11,11,0,0,1-10.95,11H467a11,11,0,0,1-10.95-11v-99h176Zm0-22v-22a11,11,0,0,0-10.95-11h-0.05a11,11,0,0,1-22,0h-22a11,11,0,0,1-22,0h-22a11,11,0,0,1-22,0h-22a11,11,0,0,1-22,0H467a11,11,0,0,0-10.95,11v22h176Z"/></clipPath><clipPath id="clip-path-4"><path class="cls-1" d="M1214.09,86.69a21,21,0,0,1,21-20.95h57.77a14.69,14.69,0,0,1,9,3.73L1336.36,104a14.48,14.48,0,0,1,3.73,9V233.76a21,21,0,0,1-20.95,21H1235a20.94,20.94,0,0,1-20.95-20.95V86.69Zm168-41.95h21a21,21,0,0,1,21,21v147l-20.7,34.57c-6,10-15.65,9.93-21.59,0l-20.7-34.57v-147A21,21,0,0,1,1382.07,44.75Zm21,131.25V97.27s-21,0-21,0,0,46.31,0,78.75h21Zm0,21v10.07l-10.5,17.33-10.49-17.46s0-3.78,0-9.94h21Zm-83.93-57.75c0,34.09,0,94.5,0,94.5s-84.05,0-84.05.05l0-147.05h31.52v42a10.49,10.49,0,0,0,10.53,10.5h42Zm0-21c0-1.12,0-1.72,0-1.72L1289.3,86.75h-1.71v31.5h31.58Z"/></clipPath></defs><title>FontTristan</title><path class="cls-2" d="M107.09,264.78a21.92,21.92,0,1,0-21.92-21.92A21.92,21.92,0,0,0,107.09,264.78Zm98.64,0a21.92,21.92,0,1,0-21.92-21.92A21.92,21.92,0,0,0,205.73,264.78ZM97.28,155.19H225.89l10.38-55.56-154-9.42ZM77.13,67.93L251.45,78.61A9.38,9.38,0,0,1,260.36,90L246.1,166.35a13.69,13.69,0,0,1-13,10.75H102.34l2.53,11H227.65a11,11,0,0,1,0,21.92H96.13a11,11,0,0,1-10.68-8.5L53.75,64.12,36.62,55.51A11,11,0,0,1,46.4,35.89L68.15,46.74a11,11,0,0,1,5.79,7.34Z"/><g class="cls-3"><rect x="-5246.68" y="-10503.03" width="9732.13" height="19727.29"/><g class="cls-4"><rect x="3.15" y="7.34" width="284.8" height="284.84"/></g></g><path class="cls-2" d="M599.09,56.26h-22v-11a11,11,0,0,0-22,0v11h-22v-11a11,11,0,0,0-22,0v11h-22v-11a11,11,0,0,0-22,0v11H467a33,33,0,0,0-32.95,33v143a33,33,0,0,0,32.95,33H621.14a33,33,0,0,0,32.95-33v-143a33,33,0,0,0-32.95-33h-0.05v-11a11,11,0,0,0-22,0v11Zm33,77v99a11,11,0,0,1-10.95,11H467a11,11,0,0,1-10.95-11v-99h176Zm0-22v-22a11,11,0,0,0-10.95-11h-0.05a11,11,0,0,1-22,0h-22a11,11,0,0,1-22,0h-22a11,11,0,0,1-22,0h-22a11,11,0,0,1-22,0H467a11,11,0,0,0-10.95,11v22h176Z"/><g class="cls-5"><rect x="-8563.91" y="-15288.74" width="9768" height="19800"/></g><path class="cls-2" d="M1214.09,86.69a21,21,0,0,1,21-20.95h57.77a14.69,14.69,0,0,1,9,3.73L1336.36,104a14.48,14.48,0,0,1,3.73,9V233.76a21,21,0,0,1-20.95,21H1235a20.94,20.94,0,0,1-20.95-20.95V86.69Zm168-41.95h21a21,21,0,0,1,21,21v147l-20.7,34.57c-6,10-15.65,9.93-21.59,0l-20.7-34.57v-147A21,21,0,0,1,1382.07,44.75Zm21,131.25V97.27s-21,0-21,0,0,46.31,0,78.75h21Zm0,21v10.07l-10.5,17.33-10.49-17.46s0-3.78,0-9.94h21Zm-83.93-57.75c0,34.09,0,94.5,0,94.5s-84.05,0-84.05.05l0-147.05h31.52v42a10.49,10.49,0,0,0,10.53,10.5h42Zm0-21c0-1.12,0-1.72,0-1.72L1289.3,86.75h-1.71v31.5h31.58Z"/><g class="cls-6"><rect x="-4854.91" y="-6024.25" width="9324" height="18900"/></g></svg>
